src/assets/filled/VolumeLow1.svg

<svg width="24" height="24" viewBox="0 0 24 24"  xmlns="http://www.w3.org/2000/svg">
<path d="M19.3301 16.75C19.1701 16.75 19.0201 16.7 18.8801 16.6C18.5501 16.35 18.4801 15.88 18.7301 15.55C20.3001 13.46 20.3001 10.54 18.7301 8.45003C18.4801 8.12003 18.5501 7.65003 18.8801 7.40003C19.2101 7.15003 19.6801 7.22003 19.9301 7.55003C21.9001 10.17 21.9001 13.83 19.9301 16.45C19.7901 16.65 19.5601 16.75 19.3301 16.75Z" />
<path d="M15.3501 3.77997C14.2301 3.15997 12.8001 3.31997 11.3401 4.22997L8.42008 6.05997C8.22008 6.17997 7.99008 6.24997 7.76008 6.24997H6.83008H6.33008C3.91008 6.24997 2.58008 7.57997 2.58008 9.99997V14C2.58008 16.42 3.91008 17.75 6.33008 17.75H6.83008H7.76008C7.99008 17.75 8.22008 17.82 8.42008 17.94L11.3401 19.77C12.2201 20.32 13.0801 20.59 13.8801 20.59C14.4001 20.59 14.9001 20.47 15.3501 20.22C16.4601 19.6 17.0801 18.31 17.0801 16.59V7.40997C17.0801 5.68997 16.4601 4.39997 15.3501 3.77997Z" />
</svg>

<?xml version="1.0" encoding="UTF-8"?>
<svg width="24" height="24" viewBox="0 0 24 24" xmlns="http://www.w3.org/2000/svg">
 <path d="m19.33 16.75c-0.16 0-0.31-0.05-0.45-0.15-0.33-0.25-0.4-0.72-0.15-1.05 1.57-2.09 1.57-5.01 0-7.1-0.25-0.33-0.18-0.8 0.15-1.05s0.8-0.18 1.05 0.15c1.97 2.62 1.97 6.28 0 8.9-0.14 0.2-0.37 0.3-0.6 0.3z"/>
 <path d="m15.35 3.78c-1.12-0.62-2.55-0.46-4.01 0.45l-2.92 1.83c-0.2 0.12-0.43 0.19-0.66 0.19h-1.43c-2.42 0-3.75 1.33-3.75 3.75v4c0 2.42 1.33 3.75 3.75 3.75h1.43c0.23 0 0.46 0.07 0.66 0.19l2.92 1.83c0.88 0.55 1.74 0.82 2.54 0.82 0.52 0 1.02-0.12 1.47-0.37 1.11-0.62 1.73-1.91 1.73-3.63v-9.18c0-1.72-0.62-3.01-1.73-3.63z"/>
</svg>
